static/icons/html5.svg

<svg xmlns="http://www.w3.org/2000/svg" width="24" height="24" viewBox="0 0 24 24">
  <path d="M5,5 L6.25089606,19.1357143 L11.8637993,21 L17.5125448,19.1357143 L18.7634409,5 L5,5 Z M16.046595,9.56785714 L9.45878136,9.56785714 L9.60573477,11.3321429 L15.8996416,11.3321429 L15.4121864,16.6321429 L11.9032258,17.5964286 L11.9032258,17.6071429 L11.8637993,17.6071429 L8.32616487,16.6321429 L8.11111111,13.925 L9.82078853,13.925 L9.94623656,15.2857143 L11.8637993,15.8035714 L13.7885305,15.2857143 L14.0035842,13.0642857 L8.02150538,13.0642857 L7.56272401,7.86428571 L16.2043011,7.86428571 L16.046595,9.56785714 Z"/>
</svg>

<svg xmlns="http://www.w3.org/2000/svg" width="24" height="24">
    <path d="M5 5l1.25 14.136L11.865 21l5.649-1.864L18.763 5H5zm11.047 4.568H9.459l.147 1.764H15.9l-.488 5.3-3.509.964v.011h-.04l-3.537-.975-.215-2.707h1.71l.125 1.36 1.918.519 1.925-.518.215-2.222H8.022l-.46-5.2h8.642l-.157 1.704z"/>
</svg>
